static/svg/logos/sand-dollar-logo.svg

<?xml version="1.0" encoding="UTF-8"?>
<svg width="74px" height="70px" viewBox="0 0 74 70" version="1.1" xmlns="http://www.w3.org/2000/svg" xmlns:xlink="http://www.w3.org/1999/xlink">
    <!-- Generator: Sketch 61.1 (89650) - https://sketch.com -->
    <title>sand-dollar-logo-56</title>
    <desc>Created with Sketch.</desc>
    <g id="📱🕸-sanddollar.app" stroke="none" stroke-width="1" fill="none" fill-rule="evenodd">
        <g id="home-large" transform="translate(-83.000000, -82.000000)">
            <g id="Group-3" transform="translate(80.000000, 80.000000)">
                <g id="sand-dollar-logo">
                    <g id="sand-dollar-logo-96">
                        <path d="M7.64158333,16.4900833 C-5.34258333,34.3609167 -1.38091667,59.37425 16.4899167,72.3584167 C34.36075,85.3425833 59.3740833,81.3809167 72.35825,63.5100833 C85.3424167,45.63925 81.38075,20.6259167 63.5099167,7.64175 C45.6390833,-5.34241667 20.62575,-1.38075 7.64158333,16.4900833" id="Fill-1" fill-opacity="0" fill="#D8D8D8"></path>
                        <path d="M39.99975,44.3515833 C40.53725,44.3515833 41.1230833,44.3865833 41.7430833,44.4524167 C41.7430833,44.4549167 41.7439167,44.45825 41.7439167,44.4615833 C43.3630833,44.6365833 45.3505833,45.05575 47.4905833,45.77825 C51.9889167,47.3074167 56.8355833,50.0974167 59.92225,54.3449167 C65.0864167,61.4540833 65.9830833,67.82075 62.2064167,70.5649167 C61.2464167,71.2615833 60.1580833,71.5999167 58.9830833,71.5999167 C55.5339167,71.5999167 51.3430833,68.6865833 47.4930833,63.3890833 C44.5880833,59.3899167 43.37975,54.30075 43.19225,49.7549167 C44.14475,49.9565833 45.3005833,50.26825 46.5905833,50.74575 C46.89225,54.3990833 47.9439167,58.33825 50.1905833,61.4290833 C54.4814167,67.33575 58.4980833,69.1349167 60.24725,67.86825 C61.9964167,66.5965833 61.5205833,62.2165833 57.2255833,56.3049167 C54.9005833,53.10575 51.3164167,50.84075 47.8180833,49.43575 L47.8180833,49.43575 C47.7764167,49.4174167 47.73725,49.40575 47.6955833,49.3899167 C47.2939167,49.2299167 46.89225,49.07575 46.4955833,48.9390833 C46.4955833,48.9449167 46.4964167,48.9499167 46.4964167,48.9549167 C45.3105833,48.5524167 44.18225,48.2499167 43.16725,48.04825 L43.16725,48.04825 L43.16725,48.0340833 C41.9864167,47.7999167 40.9064167,47.6849167 39.99975,47.6849167 C39.53975,47.6849167 39.0339167,47.7149167 38.4930833,47.7749167 C38.4639167,46.58575 38.3714167,45.4699167 38.2330833,44.4549167 C38.8614167,44.38825 39.4555833,44.3515833 39.99975,44.3515833 Z M35.2105,39.68225 C35.4713333,40.26475 35.6913333,40.8239167 35.8613333,41.34475 C36.0613333,41.9605833 36.2338333,42.6605833 36.3796667,43.4155833 L36.3796667,43.4155833 L36.4444583,43.7729792 L36.4444583,43.7729792 L36.5063333,44.14225 L36.5063333,44.14225 L36.5105,44.1689167 C36.693,45.3289167 36.8121667,46.6564167 36.8338333,48.0930833 C36.8963333,53.0205833 35.7755,58.8889167 32.513,63.37975 C30.0463333,66.7739167 27.4171667,69.2514167 24.9088333,70.5430833 C22.213,71.9330833 19.6863333,71.93725 17.7938333,70.5639167 C14.0171667,67.81975 14.9138333,61.4530833 20.078,54.34475 C22.9821667,50.3489167 27.4455,47.6330833 31.7105,46.0514167 C31.8205,47.12475 31.8646667,48.3255833 31.8163333,49.5880833 C28.4355,51.00225 25.018,53.21725 22.7746667,56.30475 C18.4796667,62.2155833 18.0038333,66.5955833 19.753,67.86725 C20.8605,68.6730833 22.5021667,68.03225 23.383,67.57975 C24.8105,66.84475 27.0846667,65.1789167 29.8163333,61.41975 C32.0255,58.37975 33.0746667,54.51725 33.393,50.9130833 C33.3963333,50.9130833 33.3996667,50.91225 33.403,50.91225 C33.4121667,50.81225 33.4163333,50.71475 33.4238333,50.6155833 C33.4305,50.5255833 33.4355,50.43725 33.4421667,50.3480833 C33.4688333,49.92975 33.4888333,49.5180833 33.4971667,49.1164167 L33.4971667,49.1164167 L33.5055,48.9389167 L33.5055,48.9389167 C33.5188333,47.6880833 33.4505,46.5264167 33.328,45.49725 C33.3305,45.4964167 33.3338333,45.49475 33.3371667,45.4939167 C33.1955,44.2989167 32.9713333,43.2364167 32.6913333,42.37475 C32.548,41.9339167 32.3613333,41.4589167 32.1355,40.9605833 C33.2621667,40.5630833 34.288,40.12725 35.2105,39.68225 Z M59.8005833,25.4851667 C63.79225,24.1885 67.37475,23.7293333 70.16225,24.1601667 C73.1580833,24.6218333 75.2055833,26.101 75.9289167,28.326 C76.6514167,30.5501667 75.86475,32.951 73.71225,35.0851667 C71.70975,37.0718333 68.5414167,38.8068333 64.5514167,40.1035 C59.8564167,41.6285 54.6505833,41.206 50.27225,39.981 C50.84225,39.0001667 51.52225,38.0068333 52.2714167,37.0568333 C55.83475,37.896 59.8955833,38.111 63.5205833,36.9326667 C67.93975,35.4968333 70.2255833,33.8493333 71.36475,32.7185 C72.06725,32.0226667 73.18225,30.6593333 72.7589167,29.356 C72.3355833,28.0526667 70.63225,27.6051667 69.65475,27.4543333 C68.06975,27.2085 65.2505833,27.2201667 60.8314167,28.656 C56.8789167,29.9401667 53.4855833,32.866 51.0380833,35.9218333 C51.0364167,35.921 51.03475,35.921 51.0339167,35.9201667 C51.0030833,35.9593333 50.97725,35.9968333 50.9464167,36.036 C50.8014167,36.2193333 50.64725,36.401 50.5089167,36.5851667 C50.51475,36.5868333 50.52225,36.5885 50.5289167,36.591 C49.7755833,37.5976667 49.1389167,38.5768333 48.6364167,39.4768333 L48.6364167,39.4768333 L48.61975,39.471 C48.0314167,40.5218333 47.5889167,41.5118333 47.3080833,42.3743333 C47.1630833,42.821 47.03475,43.321 46.9230833,43.8643333 C45.82975,43.5376667 44.7439167,43.2743333 43.6864167,43.0818333 C43.81725,42.4543333 43.96725,41.8685 44.1380833,41.3443333 C44.31725,40.7943333 44.55475,40.201 44.83475,39.5843333 C44.8405833,39.5868333 44.8464167,39.5893333 44.85225,39.5926667 C45.6114167,37.9168333 46.6789167,36.1326667 47.9680833,34.4318333 C50.80725,30.7043333 54.90725,27.076 59.8005833,25.4851667 Z M9.83766667,24.15975 C12.6251667,23.73225 16.2093333,24.1889167 20.201,25.4855833 C24.8926667,27.00975 28.8551667,30.4105833 31.6776667,33.97475 C30.6885,34.4089167 29.5601667,34.8205833 28.3393333,35.1655833 C25.9518333,32.39225 22.7935,29.8330833 19.1701667,28.6564167 C16.026,27.6339167 13.6918333,27.33475 12.0351667,27.33475 C11.3635,27.33475 10.8026667,27.3839167 10.3451667,27.45475 C9.36766667,27.60475 7.6635,28.0514167 7.24016667,29.3555833 C6.57183333,31.41225 9.52516667,34.6739167 16.4635,36.9280833 C20.2651667,38.16225 24.5435,37.8705833 28.2243333,36.9314167 L28.2243333,36.9314167 C28.401,36.88725 28.5693333,36.8364167 28.7401667,36.7889167 C28.9901667,36.7205833 29.246,36.65725 29.4893333,36.5830833 C29.4868333,36.57975 29.4835,36.5764167 29.481,36.57225 C30.6785,36.20225 31.7676667,35.77975 32.706,35.34725 C32.7085,35.3514167 32.7118333,35.35475 32.7143333,35.3589167 C33.8068333,34.8539167 34.7485,34.3130833 35.481,33.77975 C35.856,33.5080833 36.2493333,33.18475 36.6535,32.8164167 C37.4193333,33.8180833 38.1518333,34.6580833 38.816,35.3480833 C38.3443333,35.77475 37.8826667,36.1555833 37.441,36.47725 C37.146,36.6914167 36.8176667,36.90475 36.4735,37.11725 C36.4735,37.11725 36.4726667,37.1164167 36.4718333,37.1164167 C34.8135,38.13725 32.3926667,39.24975 29.4901667,40.04475 L29.4901667,40.04475 L29.0394251,40.1633323 C24.8075626,41.2427762 19.8909713,41.5455546 15.4335,40.0980833 C9.096,38.0389167 2.31683333,33.71975 4.06933333,28.3255833 C4.79266667,26.1005833 6.841,24.6205833 9.83766667,24.15975 Z M39.9996667,2.22008333 C44.668,2.22008333 47.6855,7.89758333 47.6855,16.6859167 C47.6855,21.6225833 45.6721667,26.4434167 43.1521667,30.22925 C42.5013333,29.5059167 41.7521667,28.5750833 40.9871667,27.42675 C42.8896667,24.29675 44.3521667,20.49925 44.3521667,16.6859167 C44.3521667,9.37758333 42.163,5.55341667 39.9996667,5.55341667 C37.8371667,5.55341667 35.648,9.37341667 35.648,16.6750833 C35.648,21.1334167 37.6363333,25.5775833 39.9996667,28.9475833 C40.0046667,28.9400833 40.0096667,28.93175 40.0146667,28.92425 C40.738,29.9509167 41.4705,30.8550833 42.1746667,31.61675 C42.1696667,31.6234167 42.1646667,31.6309167 42.1596667,31.6375833 C42.978,32.5209167 43.7838333,33.24925 44.5171667,33.7825833 L44.5171667,33.7825833 L44.8078177,33.9865677 C45.1083646,34.1907083 45.4382083,34.3950833 45.7938333,34.5975833 C45.1438333,35.53925 44.5538333,36.4925833 44.048,37.43425 C43.5005,37.11925 42.998,36.79925 42.558,36.47925 L42.558,36.47925 L42.2535208,36.2516034 C41.7415417,35.858162 41.2078611,35.3950833 40.6655,34.8700833 C40.6688333,34.8675833 40.6713333,34.8650833 40.6738333,34.8625833 C39.508,33.7359167 38.2371667,32.2509167 37.028,30.4834167 C37.0271667,30.4859167 37.0255,30.4875833 37.0246667,30.4900833 C34.423,26.66425 32.3146667,21.7309167 32.3146667,16.6750833 C32.3146667,7.89425 35.3313333,2.22008333 39.9996667,2.22008333 Z" id="Combined-Shape" fill="#FFC72C"></path>
                    </g>
                </g>
            </g>
        </g>
    </g>
</svg>

<svg width="74" height="70" xmlns="http://www.w3.org/2000/svg"><g transform="translate(-3 -2)" fill="none" fill-rule="evenodd"><path d="M7.642 16.49C-5.343 34.36-1.381 59.374 16.49 72.358c17.87 12.985 42.884 9.023 55.868-8.848 12.984-17.87 9.023-42.884-8.848-55.868C45.64-5.342 20.626-1.381 7.642 16.49" fill="none"/><path d="M40 44.352c.537 0 1.123.035 1.743.1v.01c1.62.175 3.608.594 5.748 1.316 4.498 1.53 9.345 4.32 12.431 8.567 5.164 7.11 6.061 13.476 2.284 16.22a5.377 5.377 0 0 1-3.223 1.035c-3.45 0-7.64-2.913-11.49-8.21-2.905-4-4.113-9.09-4.3-13.635.952.202 2.108.513 3.398.99.301 3.654 1.353 7.593 3.6 10.684 4.29 5.907 8.307 7.706 10.056 6.44 1.75-1.272 1.274-5.652-3.021-11.564-2.325-3.2-5.91-5.464-9.408-6.87-.042-.018-.08-.03-.122-.045-.402-.16-.804-.314-1.2-.45v.015a26.623 26.623 0 0 0-3.329-.907v-.014c-1.18-.234-2.26-.35-3.167-.35-.46 0-.966.03-1.507.09a30.175 30.175 0 0 0-.26-3.32A16.924 16.924 0 0 1 40 44.353zm-4.79-4.67c.261.583.481 1.142.651 1.663.2.616.373 1.316.519 2.07l.064.358.062.37.005.026c.182 1.16.301 2.487.323 3.924.062 4.928-1.059 10.796-4.321 15.287-2.467 3.394-5.096 5.871-7.604 7.163-2.696 1.39-5.223 1.394-7.115.02-3.777-2.743-2.88-9.11 2.284-16.218 2.904-3.996 7.367-6.712 11.633-8.294a25.45 25.45 0 0 1 .105 3.537c-3.38 1.414-6.798 3.63-9.041 6.717-4.295 5.91-4.771 10.29-3.022 11.562 1.107.806 2.75.165 3.63-.287 1.428-.735 3.702-2.401 6.433-6.16 2.21-3.04 3.259-6.903 3.577-10.507h.01c.01-.1.013-.198.02-.297.008-.09.012-.179.02-.268.026-.418.046-.83.054-1.232l.008-.177a26.887 26.887 0 0 0-.177-3.442l.01-.003c-.142-1.195-.367-2.258-.647-3.12-.143-.44-.33-.915-.556-1.413a30.22 30.22 0 0 0 3.076-1.279zM59.8 25.485c3.992-1.296 7.575-1.756 10.362-1.325 2.996.462 5.044 1.941 5.767 4.166.722 2.224-.064 4.625-2.217 6.76-2.002 1.986-5.17 3.72-9.16 5.017-4.696 1.526-9.901 1.103-14.28-.122.57-.98 1.25-1.974 2-2.924 3.563.839 7.624 1.054 11.249-.124 4.419-1.436 6.705-3.084 7.844-4.215.702-.695 1.817-2.059 1.394-3.362-.423-1.303-2.127-1.75-3.104-1.902-1.585-.245-4.404-.234-8.824 1.202-3.952 1.284-7.345 4.21-9.793 7.266l-.004-.002c-.03.04-.057.077-.088.116-.145.183-.299.365-.437.55.006 0 .013.003.02.005a26.21 26.21 0 0 0-1.893 2.886l-.016-.006c-.589 1.05-1.031 2.04-1.312 2.903a13.97 13.97 0 0 0-.385 1.49 30.315 30.315 0 0 0-3.237-.782c.131-.628.281-1.214.452-1.738.18-.55.417-1.143.697-1.76l.017.009c.76-1.676 1.827-3.46 3.116-5.161 2.84-3.728 6.94-7.356 11.833-8.947zM9.839 24.16c2.787-.428 6.371.029 10.363 1.326 4.692 1.524 8.654 4.925 11.477 8.489-.99.434-2.118.846-3.339 1.19-2.387-2.773-5.545-5.332-9.169-6.509-3.144-1.022-5.478-1.321-7.135-1.321-.671 0-1.232.049-1.69.12-.977.15-2.682.596-3.105 1.9-.668 2.057 2.285 5.319 9.223 7.573 3.802 1.234 8.08.943 11.761.003.177-.044.345-.095.516-.142.25-.068.506-.132.75-.206l-.009-.01a26.335 26.335 0 0 0 3.225-1.226l.008.012c1.093-.505 2.035-1.046 2.767-1.58.375-.27.768-.594 1.172-.963a29.42 29.42 0 0 0 2.163 2.532c-.472.427-.933.808-1.375 1.13-.295.213-.623.427-.968.64l-.001-.002c-1.659 1.021-4.08 2.134-6.982 2.929l-.45.118c-4.232 1.08-9.149 1.383-13.606-.065-6.338-2.06-13.117-6.378-11.365-11.772.724-2.225 2.772-3.705 5.769-4.166zM40 2.22c4.668 0 7.685 5.678 7.685 14.466 0 4.937-2.013 9.757-4.533 13.543-.65-.723-1.4-1.654-2.165-2.802 1.903-3.13 3.365-6.928 3.365-10.741 0-7.308-2.189-11.133-4.352-11.133-2.163 0-4.352 3.82-4.352 11.122 0 4.458 1.988 8.903 4.352 12.273l.015-.024a26.294 26.294 0 0 0 2.16 2.693l-.015.02c.818.884 1.624 1.612 2.357 2.146l.29.204c.301.204.631.408.987.61-.65.942-1.24 1.896-1.746 2.837a16.769 16.769 0 0 1-1.49-.955l-.304-.227a18.606 18.606 0 0 1-1.588-1.382.075.075 0 0 0 .008-.007c-1.166-1.127-2.437-2.612-3.646-4.38 0 .003-.002.005-.003.007-2.602-3.826-4.71-8.76-4.71-13.815C32.315 7.895 35.33 2.22 40 2.22z" fill="#FFC72C"/></g></svg>
